src/pages/elements/images/f.svg

<?xml version="1.0" encoding="UTF-8"?><svg width="32px" height="32px" viewBox="0 0 32 32" version="1.1" xmlns="http://www.w3.org/2000/svg" xmlns:xlink="http://www.w3.org/1999/xlink"><!--Generator: Sketch 50.2 (55047) - http://www.bohemiancoding.com/sketch--><title>Artboard Copy 2</title><desc>Created with Sketch.</desc><defs><linearGradient x1="-4.42486339%" y1="5.26641884%" x2="79.0546448%" y2="80.9888476%" id="google-fonts_svg__linearGradient-1"><stop stop-color="#3E2723" stop-opacity="0.2" offset="0.6%"/><stop stop-color="#3E2723" stop-opacity="0" offset="99.6%"/></linearGradient><radialGradient cx="14.4961446%" cy="14.9463125%" fx="14.4961446%" fy="14.9463125%" r="100.539371%" gradientTransform="translate(0.144961,0.149463),scale(0.999869,1.000000),translate(-0.144961,-0.149463)" id="google-fonts_svg__radialGradient-2"><stop stop-color="#FFFFFF" offset="0%"/><stop stop-color="#FFFFFF" stop-opacity="0.99" offset="1%"/><stop stop-color="#FFFFFF" stop-opacity="0" offset="100%"/></radialGradient></defs><g id="google-fonts_svg__Artboard-Copy-2" stroke="none" stroke-width="1" fill="none" fill-rule="evenodd"><g id="google-fonts_svg__Group-2" fill-rule="nonzero"><g id="google-fonts_svg__fonts-logo"><path d="M31.8857143,16 C31.8857143,16.64 31.8571429,17.2509091 31.7714286,17.8618182 C30.9428571,25.0472727 25.2571429,30.7781818 18.1142857,31.7381818 C17.4285714,31.8254545 16.7142857,31.8836364 16,31.8836364 C7.22857143,31.8836364 0.114285714,24.7854545 0.114285714,16 C0.114285714,7.21454545 7.22857143,0.0872727273 16,0.0872727273 C24.7714286,0.0872727273 31.8857143,7.21454545 31.8857143,16 Z" id="google-fonts_svg__Shape" fill="#FF5252"/><path d="M31.8571429,18.0363636 C30.9714286,24.96 25.5714286,30.4 18.7142857,31.5345455 L10.9428571,23.7090909 L14.2571429,23.7090909 L14.2571429,17.3381818 L20.3428571,17.3381818 L20.3428571,14.3709091 L14.2571429,14.3709091 L14.2571429,10.9963636 L21.9714286,10.9963636 L21.9714286,8.05818182 L31.8571429,18.0363636 Z" id="google-fonts_svg__Shape" fill="url(#google-fonts_svg__linearGradient-1)"/><path d="M16,31.7090909 C7.25714286,31.7090909 0.142857143,24.64 0.114285714,15.9127273 L0.114285714,16 C0.114285714,24.7854545 7.22857143,31.8836364 16,31.8836364 C24.7714286,31.8836364 31.8857143,24.7854545 31.8857143,16 L31.8857143,15.9127273 C31.8571429,24.64 24.7428571,31.7090909 16,31.7090909 Z" id="google-fonts_svg__Shape" fill="#3E2723" opacity="0.2"/><path d="M16,0.290909091 C24.7428571,0.290909091 31.8571429,7.36 31.8857143,16.0872727 L31.8857143,16 C31.8857143,7.21454545 24.7714286,0.116363636 16,0.116363636 C7.22857143,0.116363636 0.114285714,7.21454545 0.114285714,16 L0.114285714,16.0872727 C0.142857143,7.36 7.25714286,0.290909091 16,0.290909091 Z" id="google-fonts_svg__Shape" fill="#FFFFFF" opacity="0.2"/><polygon id="google-fonts_svg__Shape" fill="#F5F5F5" points="21.7714286 10.9381818 21.7714286 8.05818182 10.9428571 8.05818182 10.9428571 23.9418182 14.2 23.9418182 14.2 17.4545455 20.3428571 17.4545455 20.3428571 14.5454545 14.2 14.5454545 14.2 10.9381818"/><path d="M10.9428571,8.05818182 L21.7714286,8.05818182 L21.7714286,8.23272727 L10.9428571,8.23272727 L10.9428571,8.05818182 Z M14.2,14.5454545 L20.3428571,14.5454545 L20.3428571,14.72 L14.2,14.72 L14.2,14.5454545 Z" id="google-fonts_svg__Shape" fill="#FFFFFF" opacity="0.4"/><g id="google-fonts_svg__Group" opacity="0.2" transform="translate(10.857143, 10.763636)" fill="#3E2723"><path d="M0.0857142857,13.2363636 L3.37142857,13.2363636 L3.37142857,13.3527273 L0.257142857,13.3527273 L0.0857142857,13.2363636 Z M3.34285714,6.69090909 L9.48571429,6.69090909 L9.48571429,6.86545455 L3.34285714,6.86545455 L3.34285714,6.69090909 Z M3.34285714,0.174545455 L10.9428571,0.174545455 L10.9428571,0.349090909 L3.34285714,0.349090909 L3.34285714,0.174545455 Z" id="google-fonts_svg__Shape"/></g><ellipse id="google-fonts_svg__Oval" fill-opacity="0.1" fill="url(#google-fonts_svg__radialGradient-2)" cx="16" cy="16" rx="15.8857143" ry="15.8836364"/></g></g></g></svg>

<svg xmlns="http://www.w3.org/2000/svg" viewBox="0 0 32 32"><defs><radialGradient cx="14.496%" cy="14.946%" fx="14.496%" fy="14.946%" r="100.539%" gradientTransform="scale(.99987 1)" id="b"><stop stop-color="#FFF" offset="0%"/><stop stop-color="#FFF" stop-opacity=".99" offset="1%"/><stop stop-color="#FFF" stop-opacity="0" offset="100%"/></radialGradient><linearGradient x1="-4.425%" y1="5.266%" x2="79.055%" y2="80.989%" id="a"><stop stop-color="#3E2723" stop-opacity=".2" offset=".6%"/><stop stop-color="#3E2723" stop-opacity="0" offset="99.6%"/></linearGradient></defs><g fill="none"><path d="M31.886 16c0 .64-.029 1.25-.115 1.862-.828 7.185-6.514 12.916-13.657 13.876-.685.087-1.4.146-2.114.146C7.229 31.884.114 24.785.114 16S7.23.087 16 .087C24.771.087 31.886 7.215 31.886 16z" fill="#FF5252"/><path d="M31.857 18.036c-.886 6.924-6.286 12.364-13.143 13.499l-7.771-7.826h3.314v-6.37h6.086V14.37h-6.086v-3.375h7.714V8.058l9.886 9.978z" fill="url(#a)"/><path d="M16 31.71C7.257 31.71.143 24.64.114 15.912V16C.114 24.785 7.23 31.884 16 31.884c8.771 0 15.886-7.099 15.886-15.884v-.087C31.857 24.64 24.743 31.709 16 31.709z" fill="#3E2723" opacity=".2"/><path d="M16 .29c8.743 0 15.857 7.07 15.886 15.797V16C31.886 7.215 24.77.116 16 .116 7.229.116.114 7.215.114 16v.087C.143 7.36 7.257.291 16 .291z" fill="#FFF" opacity=".2"/><path fill="#F5F5F5" d="M21.771 10.938v-2.88H10.943v15.884H14.2v-6.487h6.143v-2.91H14.2v-3.607z"/><path d="M10.943 8.058H21.77v.175H10.943v-.175zm3.257 6.487h6.143v.175H14.2v-.175z" fill="#FFF" opacity=".4"/><path d="M10.943 24h3.286v.116h-3.115L10.943 24zm3.257-6.545h6.143v.174H14.2v-.174zm0-6.517h7.6v.175h-7.6v-.175z" opacity=".2" fill="#3E2723"/><ellipse fill-opacity=".1" fill="url(#b)" cx="16" cy="16" rx="15.886" ry="15.884"/></g></svg>
